X: 10192
Q: "Slow."
M: 6/8
L: 1/8
K: Em
d |\
e>fe edB | efg gfe | d>ed dAB | d>ef fed |\
e>fe edB | efg gfe | dBd AFD | EFE E2
efe edB | efg gfe | d>ed dAB | def fed |\
gbg faf | ege BeB | dBd AFD | EFE E2 |]
y6 | "1)"FDF A2d |


